manual/professional/dde-file-manager/en_US/icon/Enter.svg

<?xml version="1.0" encoding="iso-8859-1"?>
<!-- Generator: Adobe Illustrator 18.0.0, SVG Export Plug-In . SVG Version: 6.00 Build 0)  -->
<!DOCTYPE svg PUBLIC "-//W3C//DTD SVG 1.1//EN" "http://www.w3.org/Graphics/SVG/1.1/DTD/svg11.dtd">
<svg version="1.1" id="&#x56FE;&#x5C42;_1" xmlns="http://www.w3.org/2000/svg" xmlns:xlink="http://www.w3.org/1999/xlink" x="0px"
	 y="0px" viewBox="0 0 30 20" enable-background="new 0 0 30 20" xml:space="preserve">
<g>
	<path opacity="0.1" fill="#FFFFFF" d="M25.667,19.5H4.333c-2.108,0-3.833-1.725-3.833-3.833V4.333C0.5,2.225,2.225,0.5,4.333,0.5
		h21.334c2.108,0,3.833,1.725,3.833,3.833v11.334C29.5,17.775,27.775,19.5,25.667,19.5z"/>
	<path d="M15,14h-1v-3.331c0-1.192-0.46-1.788-1.344-1.788c-0.458,0-0.877,0.168-1.171,0.503C11.191,9.72,11,10.145,11,10.659V14h-1
		V8h1v1c0,0,0.521-1.032,2.021-1.032c0.646,0,1.137,0.235,1.474,0.643S15,9.643,15,10.423V14z"/>
	<path d="M22.965,11.291h-3.881c0.017,0.617,0.179,1.094,0.486,1.43s0.737,0.505,1.289,0.505c0.622,0,1.192-0.207,1.71-0.622v0.915
		c-0.488,0.359-1.135,0.539-1.941,0.539c-0.802,0-1.428-0.265-1.878-0.795c-0.45-0.53-0.674-1.265-0.674-2.207
		c0-0.886,0.247-1.616,0.74-2.191c0.493-0.575,1.106-0.863,1.838-0.863c0.725,0,1.292,0.243,1.7,0.729
		c0.408,0.486,0.612,1.167,0.612,2.042V11.291z M21.982,10.47c-0.003-0.523-0.122-0.927-0.356-1.213
		c-0.234-0.286-0.563-0.429-0.988-0.429c-0.391,0-0.73,0.152-1.015,0.455c-0.286,0.303-0.466,0.699-0.539,1.187H21.982z"/>
	<path fill="none" stroke="#CBCBCB" stroke-miterlimit="10" d="M25.5,19.5h-21c-2.209,0-4-1.791-4-4v-11c0-2.209,1.791-4,4-4h21
		c2.209,0,4,1.791,4,4v11C29.5,17.709,27.709,19.5,25.5,19.5z"/>
	<g>
		<path d="M9,14H4V5h5v1H5v3h3v1H5v3h4V14z"/>
	</g>
	<path d="M27,9.077c0-0.125-0.423-0.189-0.703-0.189c-0.371,0-0.686,0.192-0.927,0.575C25.13,9.846,25,10.35,25,10.976V14h-1V8h1v1
		h-0.006c0.272-0.797,0.789-1.031,1.46-1.031C26.828,7.969,27,8.18,27,8.234V9.077z"/>
	<path d="M18,13.811c0,0.114-0.342,0.171-0.697,0.171c-0.967,0-1.303-0.535-1.303-1.606V9h-1V8h1V6.728l1-0.303V8h1v1h-1v3.204
		c0,0.355-0.027,0.612,0.094,0.765c0.121,0.153,0.232,0.227,0.512,0.227c0.215,0,0.394-0.181,0.394-0.181V13.811z"/>
</g>
</svg>

<?xml version="1.0" encoding="UTF-8"?>
<svg width="30px" height="20px" viewBox="0 0 30 20" version="1.1" xmlns="http://www.w3.org/2000/svg" xmlns:xlink="http://www.w3.org/1999/xlink">
    <!-- Generator: Sketch 64 (93537) - https://sketch.com -->
    <title>Enter</title>
    <desc>Created with Sketch.</desc>
    <g id="页面-1" stroke="none" stroke-width="1" fill="none" fill-rule="evenodd">
        <g id="Enter">
            <path d="M25.667,19.5 L4.333,19.5 C2.225,19.5 0.5,17.775 0.5,15.667 L0.5,4.333 C0.5,2.225 2.225,0.5 4.333,0.5 L25.667,0.5 C27.775,0.5 29.5,2.225 29.5,4.333 L29.5,15.667 C29.5,17.775 27.775,19.5 25.667,19.5 Z" id="路径" fill="#FFFFFF" fill-rule="nonzero"></path>
            <path d="M15,14 L14,14 L14,10.669 C14,9.477 13.54,8.881 12.656,8.881 C12.198,8.881 11.779,9.049 11.485,9.384 C11.191,9.72 11,10.145 11,10.659 L11,14 L10,14 L10,8 L11,8 L11,9 C11,9 11.521,7.968 13.021,7.968 C13.667,7.968 14.158,8.203 14.495,8.611 C14.832,9.019 15,9.643 15,10.423 L15,14 Z" id="路径" fill="#000000" fill-rule="nonzero"></path>
            <path d="M22.965,11.291 L19.084,11.291 C19.101,11.908 19.263,12.385 19.57,12.721 C19.877,13.057 20.307,13.226 20.859,13.226 C21.481,13.226 22.051,13.019 22.569,12.604 L22.569,13.519 C22.081,13.878 21.434,14.058 20.628,14.058 C19.826,14.058 19.2,13.793 18.75,13.263 C18.3,12.733 18.076,11.998 18.076,11.056 C18.076,10.17 18.323,9.44 18.816,8.865 C19.309,8.29 19.922,8.002 20.654,8.002 C21.379,8.002 21.946,8.245 22.354,8.731 C22.762,9.217 22.966,9.898 22.966,10.773 L22.966,11.291 L22.965,11.291 Z M21.982,10.47 C21.979,9.947 21.86,9.543 21.626,9.257 C21.392,8.971 21.063,8.828 20.638,8.828 C20.247,8.828 19.908,8.98 19.623,9.283 C19.337,9.586 19.157,9.982 19.084,10.47 L21.982,10.47 Z" id="形状" fill="#000000" fill-rule="nonzero"></path>
            <path d="M25.5,19.5 L4.5,19.5 C2.291,19.5 0.5,17.709 0.5,15.5 L0.5,4.5 C0.5,2.291 2.291,0.5 4.5,0.5 L25.5,0.5 C27.709,0.5 29.5,2.291 29.5,4.5 L29.5,15.5 C29.5,17.709 27.709,19.5 25.5,19.5 Z" id="路径" stroke="#CBCBCB"></path>
            <polygon id="路径" fill="#000000" fill-rule="nonzero" points="9 14 4 14 4 5 9 5 9 6 5 6 5 9 8 9 8 10 5 10 5 13 9 13"></polygon>
            <path d="M27,9.077 C27,8.952 26.577,8.888 26.297,8.888 C25.926,8.888 25.611,9.08 25.37,9.463 C25.13,9.846 25,10.35 25,10.976 L25,14 L24,14 L24,8 L25,8 L25,9 L24.994,9 C25.266,8.203 25.783,7.969 26.454,7.969 C26.828,7.969 27,8.18 27,8.234 L27,9.077 Z" id="路径" fill="#000000" fill-rule="nonzero"></path>
            <path d="M18,13.811 C18,13.925 17.658,13.982 17.303,13.982 C16.336,13.982 16,13.447 16,12.376 L16,9 L15,9 L15,8 L16,8 L16,6.728 L17,6.425 L17,8 L18,8 L18,9 L17,9 L17,12.204 C17,12.559 16.973,12.816 17.094,12.969 C17.215,13.122 17.326,13.196 17.606,13.196 C17.821,13.196 18,13.015 18,13.015 L18,13.811 Z" id="路径" fill="#000000" fill-rule="nonzero"></path>
        </g>
    </g>
</svg>
